icons-common/message.svg

<svg height="1em" width="auto" viewBox="0 0 105 105" fill="currentColor" xmlns="http://www.w3.org/2000/svg">
    <path d="M67.8934 45.6686C62.8055 46.1052 57.6735 46.1488 52.5856 46.1925C47.4978 46.1488 42.3657 46.1052 37.2779 45.6686C35.1543 45.494 33.5616 43.6168 33.7385 41.5213C33.9155 39.644 35.4197 38.2034 37.2779 38.0288C42.3657 37.5922 47.4978 37.5485 52.5856 37.5049C57.6735 37.5485 62.8055 37.5922 67.8934 38.0288C70.017 38.2034 71.6097 40.0806 71.4327 42.1761C71.2558 44.0533 69.7515 45.494 67.8934 45.6686Z"
          />
    <path d="M67.8934 60.7301C62.8055 61.1667 57.6735 61.2103 52.5856 61.254C47.4978 61.2103 42.3657 61.1667 37.2779 60.7301C35.1543 60.5555 33.5616 58.6783 33.7385 56.5828C33.9155 54.7056 35.4197 53.2649 37.2779 53.0903C42.3657 52.6537 47.4978 52.6101 52.5856 52.5664C57.6735 52.6101 62.8055 52.6537 67.8934 53.0903C70.017 53.2649 71.6097 55.1421 71.4327 57.2376C71.2558 59.1148 69.7515 60.5555 67.8934 60.7301Z"
          />
    <path d="M65.814 20.6101H39.3572C27.8985 20.6101 18.5635 29.7779 18.5635 41.0848V57.6742C18.5635 64.7028 22.1913 70.902 27.6331 74.6128V84.6101L37.853 78.149C38.3397 78.149 38.8263 78.149 39.3572 78.149H65.814C77.2284 78.149 86.5635 68.9375 86.5635 57.6305V41.0412C86.5635 29.7342 77.2284 20.5664 65.814 20.5664V20.6101ZM78.8211 57.6742C78.8211 64.7465 72.9812 70.5528 65.814 70.5528H39.3572C32.1458 70.5528 26.3058 64.7465 26.3058 57.6742V41.0848C26.3058 34.0125 32.1458 28.2499 39.3572 28.2499H65.814C72.9812 28.2499 78.8211 34.0125 78.8211 41.0848V57.6742Z"
          />
</svg>

<svg xmlns="http://www.w3.org/2000/svg" width="auto" height="1em" fill="currentColor" viewBox="0 0 105 105">
    <path d="M67.893 45.669c-5.087.436-10.22.48-15.307.524-5.088-.044-10.22-.088-15.308-.524-2.124-.175-3.716-2.052-3.54-4.148.178-1.877 1.682-3.318 3.54-3.492 5.088-.437 10.22-.48 15.308-.524 5.087.043 10.22.087 15.307.524 2.124.174 3.717 2.052 3.54 4.147-.177 1.877-1.682 3.318-3.54 3.493m0 15.061c-5.087.437-10.22.48-15.307.524-5.088-.044-10.22-.087-15.308-.524-2.124-.174-3.716-2.052-3.54-4.147.178-1.877 1.682-3.318 3.54-3.493 5.088-.436 10.22-.48 15.308-.524 5.087.044 10.22.088 15.307.524 2.124.175 3.717 2.052 3.54 4.148-.177 1.877-1.682 3.318-3.54 3.492"/>
    <path d="M65.814 20.61H39.357c-11.458 0-20.793 9.168-20.793 20.475v16.59c0 7.028 3.627 13.227 9.07 16.938v9.997l10.219-6.461h27.961c11.414 0 20.75-9.211 20.75-20.519V41.042c0-11.307-9.336-20.475-20.75-20.475zm13.007 37.064c0 7.072-5.84 12.879-13.007 12.879H39.357c-7.211 0-13.051-5.806-13.051-12.879v-16.59c0-7.071 5.84-12.834 13.051-12.834h26.457c7.167 0 13.007 5.763 13.007 12.835z"/>
</svg>
